X:030
T: Logie O Buchan
N: O'Farrell's Pocket Companion v.1 (Sky ed. p.30)
M: 3/4
L: 1/4
Q: 80
R: waltz
K: D
A/G/|F>G A|A<f e|d B B |B2 A/G/|F>G A|
A<d e|f d d|d2 || e|f e f | a f d| f e e |e2 d/e/|
f g f|e d e| f d B| B2 A/G/|F>G A |A f e|
d B B|B2 A/G/| F G A|A d e|f d d|d2 ||
